!!!!SEGMENT: pl-wtm--r-1400--002_stefani-jozef--maestoso.krn
!!!cenid: 18xx:1872
!!!COM: Stefani, Józef
!!!COM-rismid: pe30024097
!!!CDT: 1800/04/16-1876/03/19
!!!CNT: Polish
!!!OTL: Maestoso
!!!PDT:
!!!AGN: Secular
!!!SMS-siglum: PL-Wtm
!!!SMS-shelfmark: R 1400
!!!SMS-shelfwork: 002 W
!!!SMS-variant:
!!!SMS-altvar:
!!!NIFC-rismid: 1001117878
!!!URL-scan: http://repozytorium.nifc.pl/skany/pl-wtm-nut--r1400
!!!ONB-nifc: UWAGA: No. 2. Następny utwór: No. 3. Krakowiak
**kern	**kern	**dynam
*part2	*part1	*part1
*staff2	*staff1	*
*I"Piano	*I"Piano	*
*I'P-no	*I'P-no	*
*clefF4	*clefG2	*
*k[b-e-]	*k[b-e-]	*
*B-:	*B-:	*
*M4/4	*M4/4	*
*met(c)	*met(c)	*
!	!LO:TX:a:t=Maestoso.	!
!	!LO:TX:a:t=No 2	!
16BB-/	16bb-\ 16dd\ 16b-\	f
=1	=1	=1
4BB-/	4bb-\ 4dd\ 4b-\	.
8.r	8.r	.
16BB-/	16bb-\ 16dd\ 16b-\	.
4G\	4dd\ 4b-\	.
4C/	4een\ 4cc\ 4b-\ 4g\	.
=2	=2	=2
4F\	4ff\ 4cc\ 4a\ 4f\	.
8.r	8.r	.
16F/ 16FF/	16f/ 16c/ 16A/	.
4.F/ 4.FF;/	4.f/ 4.c/ 4.A;/	.
=3||	=3||	=3||
*M3/8	*M3/8	*
!	!LO:TX:a:t=Andantino	!
8r	8f/	p
=4	=4	=4
*^	*	*
8BB-/L	4.BB-\	16b-'\LL	.
.	.	16cc\JJ 16a'\	.
8F/	.	8dd\L 8b-'\	.
8F/J	.	8dd\J 8b-'\	.
!!LO:LB:g=original
=5	=5	=5	=5
!LO:TX:a:t=P:problem:mixedbeam	!	!	!
.	.	(8qdd/ (8qb-/	.
8FF/L	4.FF\	16cc/LL 16a/))	.
.	.	16bn/JJ 16g#X'/	.
8F/	.	8cc/L 8a'/	.
8F/J	.	8cc/J 8a'/	.
=6	=6	=6	=6
!LO:TX:a:t=P:problem:mixedbeam	!	!	!
*rep	*rep	*	*
8FF/L	4.FF\	16cc\LL 16a'\	.
.	.	16dd\JJ 16b-'\	.
8F/	.	8ee-\L 8cc'\	.
8F/J	.	8ee-\J 8cc'\	.
*Xrep	*Xrep	*	*
=7	=7	=7	=7
.	.	(8qee-/ (8qcc/	.
8BB-/L	4.BB-\	16.dd\LL 16.b-\))	.
.	.	32cc\JJk 32a'\	.
8F/	.	8dd\L 8b-'\	.
8F/J	.	8dd\J 8b-'\	.
=8	=8	=8	=8
8FF/L	4.FF\	16cc\LL 16a'\	.
.	.	16cc\J 16a'\	.
8F/	.	8cc\ 8a'\	.
8F/J	.	16dd\L 16b-'\	.
.	.	16cc\JJ 16a'\	.
=9	=9	=9	=9
.	.	(8qcc/	.
(8BB-/L	4.BB-\	16b-/LL)	.
.	.	16a'/JJ	.
8D/	.	8b-'/L	.
8F/J)	.	8b-'/J	.
!!LO:LB:g=original
=10	=10	=10	=10
8FF/L	4.FF\	16cc\LL 16a\	.
.	.	16cc\J 16a\	.
8F/	.	8cc\ 8a\	.
8F/J	.	16dd\L 16b-\	.
.	.	16cc\JJ 16a\	.
*v	*v	*	*
=11	=11	=11
.	(8qcc/	.
16BB-/	16b-/LL)	.
16r	16a'/JJ	.
8F/ 8D/ 8BB-/	8b-/	.
8r	8ff\	.
=12	=12	=12
!	!	!LO:DY:rj
(16BB-/LL	16bb-'\LL	f
16F/	16ccc\JJ 16aa'\	.
16D/	8ddd\L 8bb-'\	.
16F/	.	.
16BB-/	8ddd\J 8bb-'\	.
16F/JJ)	.	.
=13	=13	=13
.	8qddd/ 8qbb-/	.
(16FF/LL	16ccc\LL 16aa\	.
16F/	16bbn\JJ 16gg#X\	.
16C/	8ccc\L 8aa\	.
16F/	.	.
16FF/	8ccc\J 8aa\	.
16F/JJ)	.	.
=14	=14	=14
*rep	*	*
(16FF/LL	16ccc\LL 16aa\	.
16F/	16ddd\JJ 16bb-\	.
16C/	8eee-\L 8ccc\	.
16F/	.	.
16FF/	8eee-\J 8ccc\	.
16F/JJ)	.	.
*Xrep	*	*
!!LO:LB:g=original
=15	=15	=15
.	(8qeee-/ 8qccc/	.
(16BB-/LL	16ddd\LL 16bb-\)	.
16F/	16ccc\JJ 16aa'\	.
16D/	8ddd\L 8bb-'\	.
16F/	.	.
16BB-/	8ddd\J 8bb-'\	.
16F/JJ)	.	.
=16	=16	=16
(16FF/LL	16ccc\LL 16aa'\	.
16F/	16ccc\J 16aa'\	.
16C/	8ccc\ 8aa'\	.
16F/	.	.
16FF/	16ddd\L 16bb-'\	.
16F/JJ)	16ccc\JJ 16aa'\	.
=17	=17	=17
.	8qccc/	.
(16BB-/LL	16bb-'\LL	.
16F/	16aa'\JJ	.
16D/	8bb-'\L	.
16F/	.	.
16BB-/	8bb-'\J	.
16F/JJ)	.	.
!!linebreak:original
=18	=18	=18
(16FF/LL	16ccc\LL 16aa'\	.
16F/	16ccc\J 16aa'\	.
16C/	8ccc\ 8aa'\	.
16F/	.	.
16FF/	16ddd\L 16bb-'\	.
16F/JJ)	16ccc\JJ 16aa'\	.
!!LO:LB:g=original
=19||	=19||	=19||
*^	*	*
!	!	!LO:TX:a:t=all(egr)o.	!
8BB-\L	4.BB-/	8bb-\	.
.	.	.	p
8F\	.	(<16d/LL	.
.	.	16f/	.
8F\J	.	16dd/	.
.	.	16cc/JJ	.
=20	=20	=20	=20
*rep	*rep	*	*
8BB-\L	4.BB-/	8b-/)	.
8F\	.	(16d/LL	.
.	.	16f/	.
8F\J	.	16dd/	.
.	.	16b-/JJ)	.
*Xrep	*Xrep	*	*
=21	=21	=21	=21
8FF/L<	4.FF/	(16a\LL	<
.	.	16b-\	.
8C/	.	16cc\	.
.	.	16dd\	.
8F/J	.	16ee-\	.
.	.	16een\JJ	.
=22	=22	=22	=22
*rep	*rep	*	*
8FF/L<	4.FF/	16gg\LL	.
.	.	16ff\	.
8C/	.	16een\	[ >
.	.	16ff\	.
8F/J	.	16ee-X\	.
.	.	16cc\JJ)	.
*Xrep	*Xrep	*	*
=23	=23	=23	=23
8BB-/L<	4.BB-/	8b-/	]
8F/	.	(<16d/LL	.
.	.	16f/	.
8F/J	.	16dd/	.
.	.	16cc/JJ	.
!!LO:LB:g=original
=24	=24	=24	=24
8BB-/L<	4.BB-/	8b-\)	.
8F/	.	(16d/LL	.
.	.	16f/	.
8F/J	.	16dd/	.
.	.	16b-/JJ)	.
=25	=25	=25	=25
(8FF/L<	4.FF/	(16a\LL	.
.	.	16b-\	.
8C/	.	16bn\	.
.	.	16cc\	.
8F/J)	.	16dd\	<
.	.	16ee-\JJ	.
=26	=26	=26	=26
*rep	*rep	*	*
(8FF/L<	4.FF/	16een\LL	.
.	.	16ff\	.
8C/	.	16ff#X\	.
.	.	16gg\	.
8F/J)	.	16gg#X\	.
.	.	16aa\JJ	[[
*Xrep	*Xrep	*	*
*v	*v	*	*
=27	=27	=27
8BB-/	8bb-\)	f
8r	8r	.
8r	8r	.
=28	=28	=28
8F/ 8BB-/	8ddd\ 8bb-\ 8ff\	.
8r	8r	.
16r	16r	.
16F/ 16BB-/	16b-/ 16f/ 16d/	.
=29	=29	=29
4.F/ 4.BB-;/	4.b-/ 4.f/ 4.d;/	.
==	==	==
*-	*-	*-
!!!system-decoration: [(s1,s2)]
!!!RDF**kern: > = above
!!!RDF**kern: < = below
!!!EED: Leszek Kubiak
!!!EST: 2021-05-05
!!!ENC:Berenika Jozajtis
!!!END:2021-04-10
